icon/cg/flag-alt.svg

<svg viewBox="0 0 24 24" fill="none" xmlns="http://www.w3.org/2000/svg" height="1em" width="1em">
  <path fill-rule="evenodd" clip-rule="evenodd" d="M12.4388 7L14.8387 4H7V10H14.8387L12.4388 7ZM19 12H7V22H5V2H19L15 7L19 12Z" fill="currentColor"/>
</svg>

<svg width="24" height="24" fill="none" xmlns="http://www.w3.org/2000/svg"><path fill-rule="evenodd" clip-rule="evenodd" d="m12.439 7 2.4-3H7v6h7.839l-2.4-3ZM19 12H7v10H5V2h14l-4 5 4 5Z" fill="currentColor"/></svg>
